!!!COM:	Bach, Johann Sebastian
!!!CDT:	1685/02/21/-1750/07/28/
!!!OTL@@DE:	Christus, der ist mein Leben
!!!SCT:	BWV 282
!!!PC#:	316
!!!AGN:	chorale
**kern	**kern	**kern	**kern
*ICvox	*ICvox	*ICvox	*ICvox
*Ibass	*Itenor	*Ialto	*Isoprn
*I"Bass	*I"Tenor	*I"Alto	*I"Soprano
*clefF4	*clefGv2	*clefG2	*clefG2
*k[f#]	*k[f#]	*k[f#]	*k[f#]
*G:	*G:	*G:	*G:
*M3/4	*M3/4	*M3/4	*M3/4
*MM100	*MM100	*MM100	*MM100
4G	4B	4d	4g
=1	=1	=1	=1
2G	2d	2g	2b
4D	4d	4f#	4a
=2	=2	=2	=2
4G	2d	2g	2b
4F#	.	.	.
4E	4c	4g	4cc
=3	=3	=3	=3
8BBL	4.B	4.g	2.dd
8CJ	.	.	.
4D	.	.	.
.	16ALL	16f#LL	.
.	16GJJ	16eJJ	.
4D	4A	4f#	.
=4	=4	=4	=4
2GG;	2G;	2d;	2b;
4r	4ry	4ry	4r
=5	=5	=5	=5
2.r	2.ry	2r	[2.ee
.	.	4r	.
=6	=6	=6	=6
2.r	2.ry	[2.f	2.ee]
.	.	.	.
=7	=7	=7	=7
2.r	[2.G#	2.f_	[2.dd
.	.	.	.
=8	=8	=8	=8
[2.C	2.G#]	2.f]	2.dd]
=9	=9	=9	=9
4.C]	[2.A	2.e	[2.cc
8BBL	.	.	.
8C	.	.	.
8AAJ	.	.	.
=10	=10	=10	=10
4D	4A]	4f#X	8ccL]
.	.	.	8bJ
4D;	4A;	4f#;	4cc;
4r	4ry	4ry	4r
=11	=11	=11	=11
8EL	8GL	8gL	4b
8DJ	8BJ	8f#J	.
4C	8BL	4e	8eeL
.	16AL	.	8ccJ
.	16BJJ	.	.
4C	4c	8f#L	4a
.	.	8eJ	.
=12	=12	=12	=12
2BB;	2F#;	2d#;	2b;
4B	4dnX	4g	4dd
=13	=13	=13	=13
2B	2c	2g	2ee
4A	4c	4a	4ff#
=14	=14	=14	=14
4G	2d	2b	2gg
4B	.	.	.
4d	4d	4a	4ff#
=15	=15	=15	=15
8GL	4.d	8bL	2.ee
8F#J	.	8aJ	.
4E	.	4.g	.
.	16c#LL	.	.
.	16BJJ	.	.
4A	4c#	.	.
.	.	16aLL	.
.	.	16gJJ	.
=16	=16	=16	=16
2D;	2A;	2f#;	2dd;
8EL	4e	4g	4b
8DJ	.	.	.
=17	=17	=17	=17
4C#	4e	4g	2a
4D#	4B	4f#	.
4E	4B	4e	4g
=18	=18	=18	=18
4CnX	8cL	4e	2g
.	8BJ	.	.
2DnX	8AL	2d	.
.	8BJ	.	.
.	4c	.	4f#
=19	=19	=19	=19
2GG;	2B;	2d;	2g;
==	==	==	==
*-	*-	*-	*-
!!!hum2abc: -Q ''
!!!title: @{PC#}. @{OTL@@DE}
!!!YOR1: 371 vierstimmige Choralges&auml;nge von Johann Sebastian Bach, 
!!!YOR2: 4th ed. by Alfred D&ouml;rffel (Leipzig: Breitkopf und H&auml;rtel, 
!!!YOR2: c.1875). 178 pp. Plate "V.A.10".  reprint: J.S. Bach, 371 Four-Part 
!!!YOR4: Chorales (New York: Associated Music Publishers, Inc., c.1940).
!!!SMS: B&H, 4th ed, Alfred D&ouml;rffel, c.1875, plate V.A.10
!!!EED:  Craig Stuart Sapp
!!!EEV:  2009/05/22
